icons/1_Primary/Arduino.svg

<svg width="1024" height="1024" viewBox="0 0 1024 1024" fill="none" xmlns="http://www.w3.org/2000/svg">
<g clip-path="url(#clip0_2_1509)">
<path d="M512 1024C794.77 1024 1024 794.77 1024 512C1024 229.23 794.77 0 512 0C229.23 0 0 229.23 0 512C0 794.77 229.23 1024 512 1024Z" fill="#73ADA4"/>
<path d="M668 362C660.212 361.929 652.431 362.514 644.74 363.75C579.87 373.17 536.34 421.12 512.01 457.91C487.68 421.12 444.15 373.17 379.28 363.75C371.571 362.622 363.792 362.037 356 362C272.35 362 204.49 429.23 204.49 512C204.49 594.77 272.57 662 356 662C363.858 662.063 371.708 661.478 379.47 660.25C444.34 650.62 487.87 602.66 512.2 565.87C536.53 602.66 580.06 650.61 644.93 660.25C652.709 661.386 660.559 661.971 668.42 662C751.42 662 819.5 594.77 819.5 512C819.5 429.23 751.43 362 668 362ZM371.8 607.69C366.506 608.492 361.155 608.86 355.8 608.79C300.74 608.79 256.15 565.21 256.15 512C256.15 458.57 300.96 415.21 356.02 415.21C361.371 415.246 366.714 415.61 372.02 416.3C433.26 425.3 470.61 487.25 483.41 511.99C470.39 537 432.83 598.72 371.8 607.69ZM668 608.79C662.649 608.751 657.306 608.383 652 607.69C590.76 598.69 553.2 536.74 540.61 512C553.2 487.25 590.76 425.28 652 416.31C657.306 415.62 662.65 415.256 668 415.22C723.05 415.22 767.65 458.8 767.65 512.01C767.64 565.43 722.83 608.79 668 608.79ZM313.27 495.93H404.9V524.77H313.27V495.93ZM710.27 524.93H679.37V555.24H649.76V525H618.86V496H649.76V465.62H679.37V495.93H710.27V524.93Z" fill="white"/>
</g>
<defs>
<clipPath id="clip0_2_1509">
<rect width="1024" height="1024" fill="white"/>
</clipPath>
</defs>
</svg>

<svg xmlns="http://www.w3.org/2000/svg" viewBox="0 0 1024 1024">
   <circle cx="512" cy="512" r="512" style="fill:#00979d"/>
   <path d="M668 362a138.67 138.67 0 0 0-23.26 1.75c-64.87 9.42-108.4 57.37-132.73 94.16-24.33-36.79-67.86-84.74-132.73-94.16A166.31 166.31 0 0 0 356 362c-83.65 0-151.51 67.23-151.51 150S272.57 662 356 662a142.9 142.9 0 0 0 23.47-1.75c64.87-9.63 108.4-57.59 132.73-94.38 24.33 36.79 67.86 84.74 132.73 94.38a166.82 166.82 0 0 0 23.49 1.75c83 0 151.08-67.23 151.08-150S751.43 362 668 362ZM371.8 607.69a98.31 98.31 0 0 1-16 1.1c-55.06 0-99.65-43.58-99.65-96.79 0-53.43 44.81-96.79 99.87-96.79a131 131 0 0 1 16 1.09c61.24 9 98.59 70.95 111.39 95.69-13.02 25.01-50.58 86.73-111.61 95.7Zm296.2 1.1a130.86 130.86 0 0 1-16-1.1c-61.24-9-98.8-70.95-111.39-95.69 12.59-24.75 50.15-86.72 111.39-95.69a131 131 0 0 1 16-1.09c55.05 0 99.65 43.58 99.65 96.79-.01 53.42-44.82 96.78-99.65 96.78ZM313.27 495.93h91.63v28.84h-91.63Zm397 29h-30.9v30.31h-29.61V525h-30.9v-29h30.9v-30.38h29.61v30.31h30.9Z" style="fill:#fff"/>
</svg>
